public/media/icons-technologies/CSS3.svg

<svg width="140" height="140" viewBox="0 0 140 140" fill="none" xmlns="http://www.w3.org/2000/svg">
<g clip-path="url(#clip0_205_1382)">
<path d="M26.774 117.429L18 10.2013L122.784 10.4168L113.506 117.429L70.7875 129.799L26.774 117.429Z" fill="#1B73BA"/>
<path d="M70.7875 119.443V20.4135L113.938 20.5572L106.243 109.159L70.7875 119.443Z" fill="#1C88C7"/>
<path d="M103.222 33.0712H36.8425L38.6408 46.0154H70.1402L39.1444 59.3205L40.9418 71.8337H86.6099L84.9553 89.309L69.4929 92.33L55.4696 88.7343L54.3905 78.8094H41.5172L43.2428 99.4502L70.8593 107.145L97.3257 98.7311L100.706 58.385H72.7285L103.222 45.7281L103.222 33.0712Z" fill="white"/>
</g>
<defs>
<clipPath id="clip0_205_1382">
<rect width="104.784" height="120" fill="white" transform="translate(18 10)"/>
</clipPath>
</defs>
</svg>

<svg xmlns="http://www.w3.org/2000/svg" fill="none" viewBox="0 0 140 140">
  <g clip-path="url(#a)">
    <path fill="#1B73BA" d="M26.77 117.43 18 10.2l104.78.22-9.27 107-42.72 12.38-44.02-12.37Z"/>
    <path fill="#1C88C7" d="M70.79 119.44V20.41l43.15.15-7.7 88.6-35.45 10.28Z"/>
    <path fill="#fff" d="M103.22 33.07H36.84l1.8 12.95h31.5l-31 13.3 1.8 12.51h45.67l-1.65 17.48-15.47 3.02-14.02-3.6-1.08-9.92H41.52l1.72 20.64 27.62 7.7 26.47-8.42 3.38-40.35H72.73l30.5-12.65V33.07Z"/>
  </g>
  <defs>
    <clipPath id="a">
      <path fill="#fff" d="M0 0h104.78v120H0z" transform="translate(18 10)"/>
    </clipPath>
  </defs>
</svg>
